public/avatar/item1/57.svg

<svg xmlns:xlink="http://www.w3.org/1999/xlink" height="65.4" width="80.15" xmlns="http://www.w3.org/2000/svg"><use height="19.7" transform="translate(13.8 31.55)" width="30.55" xlink:href="#a"/><defs><g id="a"><path d="M.15 30.65Q3.5 32.3 12 34.95q-1.15 2.2-2.1 1.85-7.55-1.5-13.55-4.85-6-3.3-12.4-11.6l.2-.55q12.7 9.15 16 10.85" fill="#ff5789" fill-rule="evenodd" transform="translate(17.8 -17.75)"/><path d="M-15.85 18.45q1.25.6 3.7 2.35 2.85 2.05 3.5 3.15.75 1.3-.35 2.6-1.15 1.35-2.5.6-1.3-.7-3.4-3.5-2-2.65-2.25-3.7-.7-2.3 1.3-1.5" fill="#c72f5d" fill-rule="evenodd" transform="translate(17.8 -17.75)"/><path d="m2.7 35.4-.05-.6 1.7.5 2.3.35 1.2-1.7-3.7-1.5 1.25-.9q1.5-.25 3.15 1l1.8 1.6q-.95 3.1-3.45 2.8-2.2.05-3.25-.5-.7-.4-.95-1.05" fill="#a61c3d" fill-rule="evenodd" transform="translate(17.8 -17.75)"/><path d="m-8.2 25.3.25 1.9-1.75.1-2.65-2.6.75-1.4 3.4 2" fill="#ff5789" fill-rule="evenodd" transform="translate(17.8 -17.75)"/><path d="m12.25 34.65-1.9-.25q.25-.5-.35-.95-2.9-1.9-3.35-2.05-.8-.25-1.7.25l-.7.5q-3.15-.75-6-2.5L-8.2 25.3q-.05-1.25-1.4-2.5-1.3-1.25-5.8-4.35-1.35-.5-1.75.35-.45.9.65 2.6 1 2 2.65 3.65l2.7 2.25 1 .1.45-.1q2.8 2.9 6.05 4.65 3.25 1.75 6.3 2.85l.05.65q.35.8 1.9 1.25l3.4.25.85-.4 1.05.25q1.45.15 1.75-.5l.6-1.65Z" fill="none" stroke="#000" stroke-linecap="round" stroke-linejoin="round" transform="translate(17.8 -17.75)"/></g></defs></svg>

<?xml version="1.0" encoding="UTF-8" standalone="no"?>
<svg xmlns:xlink="http://www.w3.org/1999/xlink" height="65.4px" width="80.15px" xmlns="http://www.w3.org/2000/svg">
  <g transform="matrix(1.0, 0.0, 0.0, 1.0, 31.6, 13.8)">
    <use height="19.7" transform="matrix(1.0, 0.0, 0.0, 1.0, -17.8, 17.75)" width="30.55" xlink:href="#shape0"/>
  </g>
  <defs>
    <g id="shape0" transform="matrix(1.0, 0.0, 0.0, 1.0, 17.8, -17.75)">
      <path d="M0.15 30.65 Q3.5 32.3 12.0 34.95 10.85 37.15 9.9 36.8 2.35 35.3 -3.65 31.95 -9.65 28.65 -16.05 20.35 L-15.85 19.8 Q-3.15 28.95 0.15 30.65" fill="#ff5789" fill-rule="evenodd" stroke="none"/>
      <path d="M-15.85 18.45 Q-14.6 19.05 -12.15 20.8 -9.3 22.85 -8.65 23.95 -7.9 25.25 -9.0 26.55 -10.15 27.9 -11.5 27.15 -12.8 26.45 -14.9 23.65 -16.9 21.0 -17.15 19.95 -17.85 17.65 -15.85 18.45" fill="#c72f5d" fill-rule="evenodd" stroke="none"/>
      <path d="M2.7 35.4 L2.65 34.8 4.35 35.3 6.65 35.65 7.85 33.95 4.15 32.45 5.4 31.55 Q6.9 31.3 8.55 32.55 L10.35 34.15 Q9.4 37.25 6.9 36.95 4.7 37.0 3.65 36.45 2.95 36.05 2.7 35.4" fill="#a61c3d" fill-rule="evenodd" stroke="none"/>
      <path d="M-8.2 25.3 L-7.95 27.2 -9.7 27.3 -12.35 24.7 -11.6 23.3 -8.2 25.3" fill="#ff5789" fill-rule="evenodd" stroke="none"/>
      <path d="M12.25 34.65 L10.35 34.4 Q10.6 33.9 10.0 33.45 7.1 31.55 6.65 31.4 5.85 31.15 4.95 31.65 L4.25 32.15 Q1.1 31.4 -1.75 29.65 L-8.2 25.3 Q-8.25 24.05 -9.6 22.8 -10.9 21.55 -15.4 18.45 -16.75 17.95 -17.15 18.8 -17.6 19.7 -16.5 21.4 -15.5 23.4 -13.85 25.05 L-11.15 27.3 -10.15 27.4 -9.7 27.3 Q-6.9 30.2 -3.65 31.95 -0.4 33.7 2.65 34.8 L2.7 35.45 Q3.05 36.25 4.6 36.7 L8.0 36.95 8.85 36.55 9.9 36.8 Q11.35 36.95 11.65 36.3 L12.25 34.65 Z" fill="none" stroke="#000000" stroke-linecap="round" stroke-linejoin="round" stroke-width="1.0"/>
    </g>
  </defs>
</svg>
